assets/icon--write.svg

<svg id="OutlineExpand" enable-background="new 0 0 64 64" height="512" viewBox="0 0 64 64" width="512" xmlns="http://www.w3.org/2000/svg"><path d="m61.383 2.076c-.373-.154-.804-.07-1.09.217l-10.293 10.293v-7.586c0-.552-.447-1-1-1h-41c-3.309 0-6 2.691-6 6v46c0 3.309 2.691 6 6 6h41c.553 0 1-.448 1-1v-27.586l4.678-4.678c4.722-4.722 7.322-11 7.322-17.677v-8.059c0-.404-.243-.769-.617-.924zm-13.383 57.924h-40c-2.206 0-4-1.794-4-4s1.794-4 4-4h40zm0-10h-40c-1.538 0-2.937.586-4 1.54v-41.54c0-2.206 1.794-4 4-4h40v8.586l-13.707 13.707c-.188.187-.293.442-.293.707v8.586l-5.707 5.707 1.414 1.414 5.707-5.707h8.586c.266 0 .52-.105.707-.293l3.293-3.293zm12-38.941c0 6.144-2.393 11.919-6.736 16.263l-9.678 9.678h-6.172l16.293-16.293-1.414-1.414-16.293 16.293v-6.172l24-24z"/><path d="m26 29c5.514 0 10-4.486 10-10s-4.486-10-10-10-10 4.486-10 10 4.486 10 10 10zm-4.919-3.704c.346-2.439 2.41-4.296 4.919-4.296s4.573 1.857 4.919 4.296c-1.359 1.064-3.064 1.704-4.919 1.704s-3.56-.64-4.919-1.704zm2.919-8.296c0-1.103.897-2 2-2s2 .897 2 2-.897 2-2 2-2-.897-2-2zm2-6c4.411 0 8 3.589 8 8 0 1.699-.536 3.273-1.443 4.57-.639-1.734-1.942-3.132-3.595-3.906.638-.709 1.038-1.637 1.038-2.664 0-2.206-1.794-4-4-4s-4 1.794-4 4c0 1.027.4 1.955 1.038 2.664-1.653.774-2.956 2.172-3.595 3.906-.907-1.297-1.443-2.871-1.443-4.57 0-4.411 3.589-8 8-8z"/><path d="m17 43h10v2h-10z"/><path d="m17 38h13v2h-13z"/><path d="m17 33h15v2h-15z"/></svg>

<svg height="512" viewBox="0 0 64 64" width="512" fill="#026670"
  xmlns="http://www.w3.org/2000/svg">
  <path d="M61.383 2.076a1 1 0 00-1.09.217L50 12.586V5a1 1 0 00-1-1H8c-3.309 0-6 2.691-6 6v46c0 3.309 2.691 6 6 6h41a1 1 0 001-1V33.414l4.678-4.678C59.4 24.014 62 17.736 62 11.059V3a1 1 0 00-.617-.924zM48 60H8c-2.206 0-4-1.794-4-4s1.794-4 4-4h40zm0-10H8a5.97 5.97 0 00-4 1.54V10c0-2.206 1.794-4 4-4h40v8.586L34.293 28.293A.997.997 0 0034 29v8.586l-5.707 5.707 1.414 1.414L35.414 39H44c.266 0 .52-.105.707-.293L48 35.414zm12-38.941a22.851 22.851 0 01-6.736 16.263L43.586 37h-6.172l16.293-16.293-1.414-1.414L36 35.586v-6.172l24-24z"/>
  <path d="M26 29c5.514 0 10-4.486 10-10S31.514 9 26 9s-10 4.486-10 10 4.486 10 10 10zm-4.919-3.704C21.427 22.857 23.491 21 26 21s4.573 1.857 4.919 4.296a7.953 7.953 0 01-9.838 0zM24 17c0-1.103.897-2 2-2s2 .897 2 2-.897 2-2 2-2-.897-2-2zm2-6c4.411 0 8 3.589 8 8a7.947 7.947 0 01-1.443 4.57 6.99 6.99 0 00-3.595-3.906A3.97 3.97 0 0030 17c0-2.206-1.794-4-4-4s-4 1.794-4 4c0 1.027.4 1.955 1.038 2.664a6.99 6.99 0 00-3.595 3.906A7.947 7.947 0 0118 19c0-4.411 3.589-8 8-8zM17 43h10v2H17zM17 38h13v2H17zM17 33h15v2H17z"/>
</svg>
